packages/ffe-icons/icons/filled/md/blinds.svg

<svg xmlns="http://www.w3.org/2000/svg" height="24" viewBox="0 -960 960 960" width="24"><path d="M180.001-200v-547.691q0-29.827 21.241-51.067 21.24-21.241 51.067-21.241h455.382q29.827 0 51.067 21.241 21.241 21.24 21.241 51.067V-200h50q12.75 0 21.375 8.629 8.625 8.628 8.625 21.384 0 12.755-8.625 21.37-8.625 8.616-21.375 8.616H130.001q-12.75 0-21.375-8.629t-8.625-21.384q0-12.756 8.625-21.371Q117.251-200 130.001-200h50ZM240-664.999h325V-760H252.309q-5.385 0-8.847 3.462-3.462 3.462-3.462 8.847v82.692Zm0 155h325V-605H240v95.001ZM240-200h480v-250.001h-95.001v81.462q12.846 8.077 20.269 20.769 7.423 12.692 7.423 27.769 0 23.901-16.916 40.796-16.916 16.896-40.845 16.896-23.93 0-40.776-16.896-16.846-16.895-16.846-40.796 0-15.077 7.423-27.769 7.423-12.692 20.269-20.769v-81.462H240V-200Zm384.999-464.999H720v-82.692q0-5.385-3.462-8.847-3.462-3.462-8.847-3.462h-82.692v95.001Zm0 155H720V-605h-95.001v95.001Z"/></svg>

<svg xmlns="http://www.w3.org/2000/svg" height="24" viewBox="0 -960 960 960" width="24"><path d="M180-200v-547.69q0-29.83 21.24-51.07Q222.48-820 252.31-820h455.38q29.83 0 51.07 21.24Q780-777.52 780-747.69V-200h50q12.75 0 21.37 8.63 8.63 8.63 8.63 21.38 0 12.76-8.63 21.37Q842.75-140 830-140H130q-12.75 0-21.37-8.63-8.63-8.63-8.63-21.38 0-12.76 8.63-21.37Q117.25-200 130-200h50Zm60-465h325v-95H252.31q-5.39 0-8.85 3.46t-3.46 8.85V-665Zm0 155h325v-95H240v95Zm0 310h480v-250h-95v81.46q12.84 8.08 20.27 20.77 7.42 12.69 7.42 27.77 0 23.9-16.91 40.8-16.92 16.89-40.85 16.89t-40.78-16.89q-16.84-16.9-16.84-40.8 0-15.08 7.42-27.77T565-368.54V-450H240v250Zm385-465h95v-82.69q0-5.39-3.46-8.85t-8.85-3.46H625v95Zm0 155h95v-95h-95v95Z"/></svg>
